public/images/icons/flying/crypto/internet.svg

<?xml version="1.0" encoding="utf-8"?>
<!-- Generator: Adobe Illustrator 24.0.0, SVG Export Plug-In . SVG Version: 6.00 Build 0)  -->
<svg version="1.1" id="Layer_1" xmlns="http://www.w3.org/2000/svg" xmlns:xlink="http://www.w3.org/1999/xlink" x="0px" y="0px"
	 viewBox="0 0 358.8 179.8" style="enable-background:new 0 0 358.8 179.8;" xml:space="preserve">
<style type="text/css">
	.st0{fill:url(#SVGID_1_);}
	.st1{fill:url(#SVGID_2_);}
	.st2{fill-rule:evenodd;clip-rule:evenodd;fill:#29ABE2;}
</style>
<linearGradient id="SVGID_1_" gradientUnits="userSpaceOnUse" x1="224.7853" y1="257.7536" x2="348.0663" y2="133.4581" gradientTransform="matrix(1 0 0 -1 0 272)">
	<stop  offset="0.21" style="stop-color:#F15A24"/>
	<stop  offset="0.6841" style="stop-color:#FBB03B"/>
</linearGradient>
<path class="st0" d="M271.6,0c-20,0-41.9,10.9-65,32.4c-10.9,10.1-20.5,21.1-27.5,29.8c0,0,11.2,12.9,23.5,26.8
	c6.7-8.4,16.2-19.8,27.3-30.1c20.5-19.2,33.9-23.1,41.6-23.1c28.8,0,52.2,24.2,52.2,54.1c0,29.6-23.4,53.8-52.2,54.1
	c-1.4,0-3-0.2-5-0.6c8.4,3.9,17.5,6.7,26,6.7c52.8,0,63.2-36.5,63.8-39.1c1.5-6.7,2.4-13.7,2.4-20.9C358.6,40.4,319.6,0,271.6,0z"/>
<linearGradient id="SVGID_2_" gradientUnits="userSpaceOnUse" x1="133.9461" y1="106.4262" x2="10.6653" y2="230.7215" gradientTransform="matrix(1 0 0 -1 0 272)">
	<stop  offset="0.21" style="stop-color:#ED1E79"/>
	<stop  offset="0.8929" style="stop-color:#522785"/>
</linearGradient>
<path class="st1" d="M87.1,179.8c20,0,41.9-10.9,65-32.4c10.9-10.1,20.5-21.1,27.5-29.8c0,0-11.2-12.9-23.5-26.8
	c-6.7,8.4-16.2,19.8-27.3,30.1c-20.5,19-34,23.1-41.6,23.1c-28.8,0-52.2-24.2-52.2-54.1c0-29.6,23.4-53.8,52.2-54.1
	c1.4,0,3,0.2,5,0.6c-8.4-3.9-17.5-6.7-26-6.7C13.4,29.6,3,66.1,2.4,68.8C0.9,75.5,0,82.5,0,89.7C0,139.4,39,179.8,87.1,179.8z"/>
<path class="st2" d="M127.3,59.7c-5.8-5.6-34-28.5-61-29.3C18.1,29.2,4,64.2,2.7,68.7C12,29.5,46.4,0.2,87.2,0
	c33.3,0,67,32.7,91.9,62.2c0,0,0.1-0.1,0.1-0.1c0,0,11.2,12.9,23.5,26.8c0,0,14,16.5,28.8,31c5.8,5.6,33.9,28.2,60.9,29
	c49.5,1.4,63.2-35.6,63.9-38.4c-9.1,39.5-43.6,68.9-84.6,69.1c-33.3,0-67-32.7-92-62.2c0,0.1-0.1,0.1-0.1,0.2
	c0,0-11.2-12.9-23.5-26.8C156.2,90.8,142.2,74.2,127.3,59.7z M2.7,69.1c0-0.1,0-0.2,0.1-0.3C2.7,68.9,2.7,69,2.7,69.1z"/>
</svg>

<svg width="359" height="180" viewBox="0 0 359 180" fill="none" xmlns="http://www.w3.org/2000/svg">
<g clip-path="url(#clip0_1_39)">
<path d="M271.6 0C251.6 0 229.7 10.9 206.6 32.4C195.7 42.5 186.1 53.5 179.1 62.2C179.1 62.2 190.3 75.1 202.6 89C209.3 80.6 218.8 69.2 229.9 58.9C250.4 39.7 263.8 35.8 271.5 35.8C300.3 35.8 323.7 60 323.7 89.9C323.7 119.5 300.3 143.7 271.5 144C270.1 144 268.5 143.8 266.5 143.4C274.9 147.3 284 150.1 292.5 150.1C345.3 150.1 355.7 113.6 356.3 111C357.8 104.3 358.7 97.3 358.7 90.1C358.6 40.4 319.6 0 271.6 0Z" fill="url(#paint0_linear_1_39)"/>
<path d="M87.1 179.8C107.1 179.8 129 168.9 152.1 147.4C163 137.3 172.6 126.3 179.6 117.6C179.6 117.6 168.4 104.7 156.1 90.7999C149.4 99.1999 139.9 110.6 128.8 120.9C108.3 139.9 94.8 144 87.2 144C58.4 144 35 119.8 35 89.8999C35 60.2999 58.4 36.0999 87.2 35.7999C88.6 35.7999 90.2 35.9999 92.2 36.3999C83.8 32.4999 74.7 29.6999 66.2 29.6999C13.4 29.5999 3 66.0999 2.4 68.7999C0.9 75.4999 0 82.4999 0 89.6999C0 139.4 39 179.8 87.1 179.8Z" fill="url(#paint1_linear_1_39)"/>
<path fill-rule="evenodd" clip-rule="evenodd" d="M127.3 59.7C121.5 54.1 93.3 31.2 66.3 30.4C18.1 29.2 3.99995 64.2 2.69995 68.7C12 29.5 46.4 0.2 87.2 0C120.5 0 154.2 32.7 179.1 62.2L179.2 62.1C179.2 62.1 190.4 75 202.7 88.9C202.7 88.9 216.7 105.4 231.5 119.9C237.3 125.5 265.4 148.1 292.4 148.9C341.9 150.3 355.6 113.3 356.3 110.5C347.2 150 312.7 179.4 271.7 179.6C238.4 179.6 204.7 146.9 179.7 117.4C179.7 117.5 179.6 117.5 179.6 117.6C179.6 117.6 168.4 104.7 156.1 90.8C156.2 90.8 142.2 74.2 127.3 59.7Z" fill="#29ABE2"/>
</g>
<defs>
<linearGradient id="paint0_linear_1_39" x1="224.785" y1="14.2464" x2="348.066" y2="138.542" gradientUnits="userSpaceOnUse">
<stop offset="0.21" stop-color="#F15A24"/>
<stop offset="0.6841" stop-color="#FBB03B"/>
</linearGradient>
<linearGradient id="paint1_linear_1_39" x1="133.946" y1="165.574" x2="10.6653" y2="41.2784" gradientUnits="userSpaceOnUse">
<stop offset="0.21" stop-color="#ED1E79"/>
<stop offset="0.8929" stop-color="#522785"/>
</linearGradient>
<clipPath id="clip0_1_39">
<rect width="358.8" height="179.8" fill="white"/>
</clipPath>
</defs>
</svg>
